assets/images/zhuye.svg

<svg xmlns="http://www.w3.org/2000/svg" preserveAspectRatio="xMidYMid" width="24" height="24" viewBox="0 0 24 24"><defs><style>.cls-1{fill:#e3e3e3;fill-rule:evenodd}</style></defs><path d="M23.083 11.257l-2.098.007v10.872a.794.794 0 0 1-.794.795h-5.133v-5.527c0-.439-.14-.492-.579-.492H9.435c-.438 0-.476.056-.476.494v5.525H3.74a.795.795 0 0 1-.794-.795V11.269l-1.576.001c-.421-.122-.477-.441-.355-.862L12.27.833l10.883 9.41c.605.623-.07 1.014-.07 1.014z" class="cls-1"/></svg>

<svg xmlns="http://www.w3.org/2000/svg" xmlns:xlink="http://www.w3.org/1999/xlink" preserveAspectRatio="xMidYMid" width="24" height="24" viewBox="0 0 24 24">
  <defs>
    <style>
      .cls-1 {
        fill: #e3e3e3;
        fill-rule: evenodd;
      }
    </style>
  </defs>
  <path d="M23.083,11.257 L20.985,11.264 L20.985,22.136 C20.985,22.575 20.630,22.931 20.191,22.931 L15.058,22.931 L15.058,17.404 C15.058,16.965 14.918,16.912 14.479,16.912 L9.435,16.912 C8.997,16.912 8.959,16.968 8.959,17.406 L8.959,22.931 L3.740,22.931 C3.302,22.931 2.946,22.575 2.946,22.136 L2.946,11.269 L1.370,11.270 C0.949,11.148 0.893,10.829 1.015,10.408 L12.270,0.833 L23.153,10.243 C23.758,10.866 23.083,11.257 23.083,11.257 Z" class="cls-1"/>
</svg>
